X:1
T:Marching in the Light
T:Marching in the Light
T:William Daniel Evridge
T:Joseph Moon (1863-1893) & Franklin Eiland, 1897
T:Public Domain Courtesy of the Cyber Hymnal™
T:Public Domain Courtesy of the Cyber Hymnal™
C:William Daniel Evridge
Z:Public Domain
Z:Courtesy of the Cyber Hymnal™
%%score ( 1 2 ) ( 3 4 )
L:1/8
Q:1/4=110
M:4/4
K:Ab
V:1 treble 
V:2 treble 
V:3 bass 
V:4 bass 
V:1
 [CE]2 | [CE]2 [Ec]2 [EA]3 [CE] | [DF]2 [DA]2 [CE]2 z2 | [EA][EA][EA][EA] (3[Ec][Ec][Ec] [EA][EA] | %4
w: 1.~We’re|march- ing home to|Ca- naan’s land,|March- ing in the beau- ti- ful light of|
w: 2.~We’re|march- ing near- er|day by day,|March- ing in the beau- ti- ful light of|
w: 3.~Come|march with us to|Ca- naan’s shore,|March- ing in the beau- ti- ful light of|
w: 4.~A-|round the shin- ing|throne we’ll meet,|March- ing in the beau- ti- ful light of|
w: 5.~Then|to a man- sion|bright and fair!|March- ing in the beau- ti- ful light of|
 [EB]6 [DE]2 | [CE]2 [Ec]2 [EA]3 [CE] | [DF]2 [DA]2 [CE]2 z2 | %7
w: God, And|soon we’ll join the|an- gel band,|
w: God, To|that sweet home where|loved ones stay,|
w: God, To|dwell with Christ for-|ev- er- more,|
w: God, And|cast our crowns at|Je- sus’ feet,|
w: God, The|an- gels will at-|tend us there,|
 [Ec][Ec][Ec][Ec] (3[DA][DA][DA] [Ec][DB] | [CA]6 ||"^Refrain" [CE][CE] | %10
w: March- ing in the beau- ti- ful light of|God.||
w: March- ing in the beau- ti- ful light of|God.||
w: March- ing in the beau- ti- ful light of|God.|We are|
w: March- ing in the beau- ti- ful light of|God.||
w: March- ing in the beau- ti- ful light of|God.||
 [CA]4- [CA][DF] ([FB]/[EA]/)[DF] | [CE]2 z4 [CA][CA] | [DB]4- [DB][Ec] ([Fd]/[Ec]/)[DB] | %13
w: |||
w: |||
w: march- * ing in * the|light, We are|march- * ing in * the|
w: |||
w: |||
 [CA]2 z4 [CA][Ec] | [Ae]4- [Ae][Ac] ([Ec]/[DB]/)[CA] | F6 [Fd][Fd] | %16
w: |||
w: |||
w: light, We are|march- * ing in * the|light, We are|
w: |||
w: |||
 [Ec][Ec][Ec][Ec] (3[DB][DB][DB] [Ec][DB] | [CA]6 |] %18
w: ||
w: ||
w: march- ing in the beau- ti- ful light of|God.|
w: ||
w: ||
V:2
 x2 | x8 | x8 | x8 | x8 | x8 | x8 | x8 | x6 || x2 | x8 | x8 | x8 | x8 | x8 | F6 x2 | x8 | x6 |] %18
V:3
 [A,,A,]2 | [A,,A,]2 [A,,A,]2 [A,,C]3 [A,,A,] | [D,A,]2 [F,A,]2 A,2 z2 | %3
w: ~|~ ~ ~ ~|~ ~ ~|
 [A,,C][A,,C][A,,C][A,,C] (3[A,,A,][A,,A,][A,,A,] [C,A,][C,A,] | [E,G,]6 [E,G,]2 | %5
w: ~ ~ ~ ~ ~ ~ ~ ~ ~|~ ~|
 [A,,A,]2 [A,,A,]2 [A,,C]3 [A,,A,] | [D,A,]2 [F,A,]2 A,2 z2 | %7
w: ~ ~ ~ ~|~ ~ ~|
 [E,A,][E,A,][E,A,][E,A,] (3[E,G,][E,G,][E,G,] [E,A,][E,G,] | [A,,A,]6 || [A,,A,][A,,A,] | %10
w: ~ ~ ~ ~ ~ ~ ~ ~ ~|~|~ ~|
 [A,,A,][A,,A,][A,,A,][A,,A,] [A,,A,][A,,A,]A,[E,G,] | (3A,A,[E,A,] [C,A,][E,C] [A,,C]2 A,A, | %12
w: ~ march- ing, march- ing, march- ing in|the beau- ti- ful light of God! We|
 [E,G,][E,G,][E,G,][E,G,] [E,G,][E,A,][E,A,][E,G,] | %13
w: are march- ing, march- ing, march- ing in|
 (3[A,,A,][A,,A,][A,,A,] [C,A,][E,C] [A,C]2 A,A, | [A,C][A,C][A,C][A,C] [A,C]A,[A,,A,][A,,A,] | %15
w: the beau- ti- ful light of God, We|are march- ing, march- ing, march- ing in|
 (3[D,A,][D,A,][D,A,] [D,A,][D,A,] [D,A,]2 [D,A,][D,A,] | %16
w: the beau- ti- ful light of God, *|
 [E,A,][E,A,][E,A,][E,A,] (3[E,G,][E,G,][E,G,] [E,A,][E,G,] | [A,,A,]6 |] %18
w: ||
V:4
 x2 | x8 | x4 A,2 x2 | x8 | x8 | x8 | x4 A,2 x2 | x8 | x6 || x2 | x6 D,/C,/ x | x6 A,A, | x8 | %13
 x6 A,A, | x5 A, x2 | x8 | x8 | x6 |] %18

